src/assets/svg/investment-10.svg

<svg width="41" height="41" viewBox="0 0 41 41" fill="none" xmlns="http://www.w3.org/2000/svg">
<path d="M5.125 30.75C6.48423 30.75 7.7878 31.2899 8.74892 32.2511C9.71004 33.2122 10.25 34.5158 10.25 35.875C10.25 37.2342 9.71004 38.5378 8.74892 39.4989C7.7878 40.46 6.48423 41 5.125 41C3.76576 41 2.4622 40.46 1.50108 39.4989C0.539954 38.5378 0 37.2342 0 35.875C0 34.5158 0.539954 33.2122 1.50108 32.2511C2.4622 31.2899 3.76576 30.75 5.125 30.75ZM35.875 30.75C37.2342 30.75 38.5378 31.2899 39.4989 32.2511C40.46 33.2122 41 34.5158 41 35.875C41 37.2342 40.46 38.5378 39.4989 39.4989C38.5378 40.46 37.2342 41 35.875 41C34.5158 41 33.2122 40.46 32.2511 39.4989C31.2899 38.5378 30.75 37.2342 30.75 35.875C30.75 34.5158 31.2899 33.2122 32.2511 32.2511C33.2122 31.2899 34.5158 30.75 35.875 30.75ZM5.125 33.3125C4.44538 33.3125 3.7936 33.5825 3.31304 34.063C2.83248 34.5436 2.5625 35.1954 2.5625 35.875C2.5625 36.5546 2.83248 37.2064 3.31304 37.687C3.7936 38.1675 4.44538 38.4375 5.125 38.4375C5.80462 38.4375 6.4564 38.1675 6.93696 37.687C7.41752 37.2064 7.6875 36.5546 7.6875 35.875C7.6875 35.1954 7.41752 34.5436 6.93696 34.063C6.4564 33.5825 5.80462 33.3125 5.125 33.3125ZM35.875 33.3125C35.1954 33.3125 34.5436 33.5825 34.063 34.063C33.5825 34.5436 33.3125 35.1954 33.3125 35.875C33.3125 36.5546 33.5825 37.2064 34.063 37.687C34.5436 38.1675 35.1954 38.4375 35.875 38.4375C36.5546 38.4375 37.2064 38.1675 37.687 37.687C38.1675 37.2064 38.4375 36.5546 38.4375 35.875C38.4375 35.1954 38.1675 34.5436 37.687 34.063C37.2064 33.5825 36.5546 33.3125 35.875 33.3125ZM21.7812 11.5312V19.2187H29.4687V21.7812H21.7812V29.4687H19.2187V21.7812H11.5312V19.2187H19.2187V11.5312H21.7812ZM5.125 0C6.48423 0 7.7878 0.539954 8.74892 1.50108C9.71004 2.4622 10.25 3.76576 10.25 5.125C10.25 6.48423 9.71004 7.7878 8.74892 8.74892C7.7878 9.71004 6.48423 10.25 5.125 10.25C3.76576 10.25 2.4622 9.71004 1.50108 8.74892C0.539954 7.7878 0 6.48423 0 5.125C0 3.76576 0.539954 2.4622 1.50108 1.50108C2.4622 0.539954 3.76576 0 5.125 0ZM35.875 0C37.2342 0 38.5378 0.539954 39.4989 1.50108C40.46 2.4622 41 3.76576 41 5.125C41 6.48423 40.46 7.7878 39.4989 8.74892C38.5378 9.71004 37.2342 10.25 35.875 10.25C34.5158 10.25 33.2122 9.71004 32.2511 8.74892C31.2899 7.7878 30.75 6.48423 30.75 5.125C30.75 3.76576 31.2899 2.4622 32.2511 1.50108C33.2122 0.539954 34.5158 0 35.875 0ZM35.875 2.5625C35.1954 2.5625 34.5436 2.83248 34.063 3.31304C33.5825 3.7936 33.3125 4.44538 33.3125 5.125C33.3125 5.80462 33.5825 6.4564 34.063 6.93696C34.5436 7.41752 35.1954 7.6875 35.875 7.6875C36.5546 7.6875 37.2064 7.41752 37.687 6.93696C38.1675 6.4564 38.4375 5.80462 38.4375 5.125C38.4375 4.44538 38.1675 3.7936 37.687 3.31304C37.2064 2.83248 36.5546 2.5625 35.875 2.5625ZM5.125 2.5625C4.44538 2.5625 3.7936 2.83248 3.31304 3.31304C2.83248 3.7936 2.5625 4.44538 2.5625 5.125C2.5625 5.80462 2.83248 6.4564 3.31304 6.93696C3.7936 7.41752 4.44538 7.6875 5.125 7.6875C5.80462 7.6875 6.4564 7.41752 6.93696 6.93696C7.41752 6.4564 7.6875 5.80462 7.6875 5.125C7.6875 4.44538 7.41752 3.7936 6.93696 3.31304C6.4564 2.83248 5.80462 2.5625 5.125 2.5625Z" fill="#00C700"/>
<path d="M27.0062 37.2203C27.1369 38.0877 27.3906 38.9141 27.7519 39.6803C25.4342 40.5547 22.9772 41.0019 20.5 41C17.9465 41 15.5031 40.5336 13.2481 39.6803C13.6082 38.9141 13.8631 38.0877 13.9938 37.2203C16.0105 38.007 18.2053 38.4375 20.5 38.4375C22.7947 38.4375 24.9895 38.007 27.0062 37.2203ZM39.6803 13.2481C40.5547 15.5658 41.0019 18.0228 41 20.5C41 23.0535 40.5336 25.4969 39.6803 27.7519C38.9004 27.3865 38.0719 27.1353 37.2203 27.0062C38.007 24.9895 38.4375 22.7947 38.4375 20.5C38.4375 18.2053 38.007 16.0105 37.2203 13.9938C38.0719 13.8647 38.9004 13.6135 39.6803 13.2481ZM1.31969 13.2481C2.08588 13.6082 2.91229 13.8631 3.77969 13.9938C2.97387 16.0683 2.56112 18.2745 2.56251 20.5C2.56251 22.7947 2.99301 24.9895 3.77969 27.0062C2.92814 27.1353 2.09963 27.3865 1.31969 27.7519C0.445261 25.4342 -0.00186121 22.9772 5.82297e-06 20.5C5.82297e-06 17.9465 0.466381 15.5031 1.31969 13.2481ZM20.5 5.82297e-06C23.0535 5.82297e-06 25.4969 0.466381 27.7519 1.31969C27.3865 2.09963 27.1353 2.92814 27.0062 3.77969C24.9317 2.97387 22.7255 2.56112 20.5 2.56251C18.2053 2.56251 16.0105 2.99301 13.9938 3.77969C13.8647 2.92814 13.6135 2.09963 13.2481 1.31969C15.5658 0.445261 18.0228 -0.00186121 20.5 5.82297e-06Z" fill="#00C700"/>
</svg>

<svg xmlns="http://www.w3.org/2000/svg" width="41" height="41" fill="none"><path fill="#00C700" d="M5.125 30.75a5.125 5.125 0 1 1 0 10.25 5.125 5.125 0 0 1 0-10.25m30.75 0a5.125 5.125 0 1 1 0 10.25 5.125 5.125 0 0 1 0-10.25m-30.75 2.563a2.563 2.563 0 1 0 0 5.125 2.563 2.563 0 0 0 0-5.126m30.75 0a2.563 2.563 0 1 0 0 5.125 2.563 2.563 0 0 0 0-5.126M21.781 11.53v7.688h7.688v2.562H21.78v7.688h-2.56V21.78h-7.69v-2.56h7.688v-7.69zM5.125 0a5.125 5.125 0 1 1 0 10.25 5.125 5.125 0 0 1 0-10.25m30.75 0a5.125 5.125 0 1 1 0 10.25 5.125 5.125 0 0 1 0-10.25m0 2.563a2.563 2.563 0 1 0 0 5.125 2.563 2.563 0 0 0 0-5.125m-30.75 0a2.562 2.562 0 1 0 0 5.124 2.562 2.562 0 0 0 0-5.124M27.006 37.22c.13.868.385 1.694.746 2.46A20.5 20.5 0 0 1 20.5 41c-2.553 0-4.997-.466-7.252-1.32.36-.766.615-1.592.746-2.46a17.9 17.9 0 0 0 6.506 1.218c2.295 0 4.49-.431 6.506-1.218M39.68 13.248A20.5 20.5 0 0 1 41 20.5c0 2.553-.466 4.997-1.32 7.252a9 9 0 0 0-2.46-.746 17.9 17.9 0 0 0 1.218-6.506c0-2.295-.431-4.49-1.218-6.506.852-.13 1.68-.38 2.46-.746m-38.36 0c.766.36 1.592.615 2.46.746A17.9 17.9 0 0 0 2.563 20.5c0 2.295.43 4.49 1.217 6.506-.852.13-1.68.38-2.46.746A20.5 20.5 0 0 1 0 20.5c0-2.553.466-4.997 1.32-7.252M20.5 0c2.553 0 4.997.466 7.252 1.32a9 9 0 0 0-.746 2.46A17.9 17.9 0 0 0 20.5 2.563c-2.295 0-4.49.43-6.506 1.217a9 9 0 0 0-.746-2.46A20.5 20.5 0 0 1 20.5 0"/></svg>
